svg/color/usdglo.svg

<svg width="64" height="65" viewBox="0 0 64 65" fill="none" xmlns="http://www.w3.org/2000/svg">
<rect y="0.303711" width="64" height="64" rx="32" fill="white"/>
<rect x="0.5" y="0.803711" width="63" height="63" rx="31.5" stroke="#070B14" stroke-opacity="0.15"/>
<path d="M31.9069 10.9707C20.177 10.9707 10.6667 20.5229 10.6667 32.3045C10.6667 44.086 20.177 53.6376 31.9069 53.6376C43.637 53.6376 53.1462 44.0863 53.1462 32.3045C53.1462 20.5227 43.6364 10.9707 31.9069 10.9707ZM39.0943 39.5255C31.8769 46.7756 22.8069 49.4198 18.8362 45.4322C14.8657 41.4453 17.4996 32.3345 24.7186 25.0844C31.9363 17.8344 41.006 15.1893 44.9771 19.1762C48.9476 23.163 46.3137 32.2738 39.0943 39.5255Z" fill="#133D38"/>
</svg>

<svg xmlns="http://www.w3.org/2000/svg" width="64" height="65" fill="none" viewBox="0 0 64 65"><rect width="64" height="64" y=".304" fill="#fff" rx="32"/><rect width="63" height="63" x=".5" y=".804" stroke="#070B14" stroke-opacity=".15" rx="31.5"/><path fill="#133D38" d="M31.907 10.97c-11.73 0-21.24 9.553-21.24 21.335s9.51 21.333 21.24 21.333 21.24-9.552 21.24-21.333c0-11.782-9.51-21.334-21.24-21.334m7.187 28.556c-7.217 7.25-16.287 9.894-20.258 5.906-3.97-3.987-1.336-13.098 5.883-20.348 7.217-7.25 16.287-9.895 20.258-5.908s1.337 13.098-5.883 20.35"/></svg>
